X:1
T:St. Cyprian
T:St. Cyprian
T:Courtesy of the Cyber Hymnal (http://www.cyberhymnal.org)
T:Courtesy of the Cyber Hymnal (http://www.cyberhymnal.org)
Z:Courtesy of the Cyber Hymnal (http://www.cyberhymnal.org)
%%score { ( 1 2 ) ( 3 4 ) }
L:1/8
M:2/4
K:F
V:1 treble nm="P1"
V:2 treble 
V:3 bass nm="P2"
V:4 bass 
V:1
"^Editor: John Henry Fowler""^( Revision: 12-3-2007 )""^q = 120" D4 | D3 D | D2 E2 | F4 | %4
 F2"^( 1875 )" FF | F3 G | A2 d2 | c2 =B2 |"^John Stainer""^( 1840 - 1901 )" A4 | A4 | A3 A | %11
 c2 =B2 | F4 | E4 | G2 A2 | B2 A2 | G2 D2 | F4 | E4 | F4 |] %20
V:2
 A,4 | A,3 A, | B,2 C2 | C4 | C2 CC | C3 E | E2 D2 | E2 F2 | A,4 | F4 | F3 F | F2 F2 | C4 | C4 | %14
 G2 A2 | B2 A2 | G2 D2 | C4 | C4 | A,4 |] %20
V:3
 F,4 | F,3 F, | F,2 B,2 | A,4 | A,2 A,A, | C3 B, | A,2 A,2 | G,2 F,2 | E,4 | A,4 | %10
"^1.  Weary of earth, and laden with my sin,I look at Heav’n and long to enter in,But there no evil thing may find a home:And yet I hear a voice that bids me “Come.”2.  So vile I am, how dare I hope to standIn the pure glory of that holy land?Before the whiteness of that throne appear?Yet there are hands stretched out to draw me near.3.  The while I fain would tread the heav’nly wayEvil is ever with me day by day;Yet on mine ears the gracious tidings fall:“Repent, confess, thou shalt be loosed from all.”4.  It is the voice of Jesus that I hear;His are the hands stretched out to draw me near,And His the blood that can for all atone,And set me faultless there before the throne." A,3 A, | %11
 _A,2"^Lyrics: Samuel J. Stone,  Lyra Fidelium, 1866." A,2 | F,4 | F,4 | %14
 G,2"^5.  ’Twas He Who found me on the deathly wild,And made me heir of Heav’n, the Father’s child,And day by day, whereby my soul may live,Gives me His grace of pardon, and will give.6.  O great Absolver, grant my soul may wearThe lowliest garb of penitence and prayer,That in the Father’s courts my glorious dressMay be the garment of Thy righteousness.7.  Yea, Thou wilt answer for me, righteous Lord;Thine all the merits, mine the great reward;Thine the sharp thorns, and mine the golden crown;Mine the life won, and Thine the life laid down.8.  Naught can I bring, dear Lord, for all I owe,Yet let my full heart what it can bestow;Like Mary’s gift, let my devotion prove,Forgiven greatly, how greatly I love." A,2 | %15
 B,2 A,2 | G,2 B,2 | A,4 | G,4 | F,4 |] %20
V:4
 D,4 | D,3 D, | B,,2 G,,2 | F,,4 | F,2 F,F, | A,3 G, | F,2 F,2 | E,2 D,2 | ^C,4 | D,4 | D,3 D, | %11
 D,2 D,2 | D,4 | D,4 | G,2 A,2 | B,2 A,2 | G,2 B,,2 | C,4 | C,4 | F,,4 |] %20

